exported-svg/command.svg

<svg height="24" viewBox="0 0 24 24" width="24" xmlns="http://www.w3.org/2000/svg"><path d="m16 10v5h2.5c1.9329966 0 3.5 1.5670034 3.5 3.5s-1.5670034 3.5-3.5 3.5-3.5-1.5670034-3.5-3.5v-2.5h-5v2.5c0 1.9329966-1.56700338 3.5-3.5 3.5s-3.5-1.5670034-3.5-3.5 1.56700338-3.5 3.5-3.5h2.5v-5h-2.5c-1.93299662 0-3.5-1.56700338-3.5-3.5s1.56700338-3.5 3.5-3.5 3.5 1.56700338 3.5 3.5v2.5h5v-2.5c0-1.93299662 1.5670034-3.5 3.5-3.5s3.5 1.56700338 3.5 3.5-1.5670034 3.5-3.5 3.5zm-1 0h-5v5h5zm-6-1v-2.5c0-1.38071187-1.11928813-2.5-2.5-2.5s-2.5 1.11928813-2.5 2.5 1.11928813 2.5 2.5 2.5zm0 7h-2.5c-1.38071187 0-2.5 1.1192881-2.5 2.5s1.11928813 2.5 2.5 2.5 2.5-1.1192881 2.5-2.5zm7 0v2.5c0 1.3807119 1.1192881 2.5 2.5 2.5s2.5-1.1192881 2.5-2.5-1.1192881-2.5-2.5-2.5zm0-7h2.5c1.3807119 0 2.5-1.11928813 2.5-2.5s-1.1192881-2.5-2.5-2.5-2.5 1.11928813-2.5 2.5z"/></svg>

<?xml version="1.0" encoding="UTF-8"?>
<svg width="24px" height="24px" viewBox="0 0 24 24" version="1.1" xmlns="http://www.w3.org/2000/svg" xmlns:xlink="http://www.w3.org/1999/xlink">
    <!-- Generator: Sketch 55.2 (78181) - https://sketchapp.com -->
    <title>command</title>
    <desc>Created with Sketch.</desc>
    <g id="command" stroke="none" stroke-width="1" fill="none" fill-rule="evenodd">
        <path d="M16,10 L16,15 L18.5,15 C20.4329966,15 22,16.5670034 22,18.5 C22,20.4329966 20.4329966,22 18.5,22 C16.5670034,22 15,20.4329966 15,18.5 L15,16 L10,16 L10,18.5 C10,20.4329966 8.43299662,22 6.5,22 C4.56700338,22 3,20.4329966 3,18.5 C3,16.5670034 4.56700338,15 6.5,15 L9,15 L9,10 L6.5,10 C4.56700338,10 3,8.43299662 3,6.5 C3,4.56700338 4.56700338,3 6.5,3 C8.43299662,3 10,4.56700338 10,6.5 L10,9 L15,9 L15,6.5 C15,4.56700338 16.5670034,3 18.5,3 C20.4329966,3 22,4.56700338 22,6.5 C22,8.43299662 20.4329966,10 18.5,10 L16,10 Z M15,10 L10,10 L10,15 L15,15 L15,10 Z M9,9 L9,6.5 C9,5.11928813 7.88071187,4 6.5,4 C5.11928813,4 4,5.11928813 4,6.5 C4,7.88071187 5.11928813,9 6.5,9 L9,9 Z M9,16 L6.5,16 C5.11928813,16 4,17.1192881 4,18.5 C4,19.8807119 5.11928813,21 6.5,21 C7.88071187,21 9,19.8807119 9,18.5 L9,16 Z M16,16 L16,18.5 C16,19.8807119 17.1192881,21 18.5,21 C19.8807119,21 21,19.8807119 21,18.5 C21,17.1192881 19.8807119,16 18.5,16 L16,16 Z M16,9 L18.5,9 C19.8807119,9 21,7.88071187 21,6.5 C21,5.11928813 19.8807119,4 18.5,4 C17.1192881,4 16,5.11928813 16,6.5 L16,9 Z" id="Shape" fill="#000000" fill-rule="nonzero"></path>
    </g>
</svg>
